src/telerik-icons/solid/table-position-start.svg

<?xml version="1.0" encoding="utf-8"?>
<svg xmlns="http://www.w3.org/2000/svg" width="512" height="512" viewBox="0 0 512 512">
  <path d="M480 320v32H32v-32h448zM32 416h448v-32H32v32zm192-160H32V32h224v224h-32zm-64-128h64V64h-64v64zm-32 32H64v64h64v-64zm0-96H64v64h64V64zm32 160h64v-64h-64v64zM32 480h320v-32H32v32z"/>
</svg>

<?xml version="1.0" encoding="utf-8"?>
<!-- Generator: Adobe Illustrator 25.0.0, SVG Export Plug-In . SVG Version: 6.00 Build 0)  -->
<svg xmlns="http://www.w3.org/2000/svg"
	 width="512px" height="512px" viewBox="0 0 512 512" enable-background="new 0 0 512 512">
<path d="M480,320v32H32v-32H480z M32,416h448v-32H32V416z M224,256H32V32h224v224H224z M160,128h64V64h-64V128z M128,160H64v64h64
	V160z M128,64H64v64h64V64z M160,224h64v-64h-64V224z M32,480h320v-32H32V480z" />
</svg>
